X: 151
T:Missa Sine nomine / Sanctus
N: Derived from Jos1202d-Missa_Sine_nomine-Sanctus.krn
C: Josquin des Prez
%%abc-version 2.0
%%abcx-abcm2ps-target-version 5.9.1 (29 Sep 2008)
%%abc-creator hum2abc beta
%%abcx-conversion-date 2019/02/12 16:15:45
%%abc-edited-by Jesse Rodin
%%abc-edited-by Jesse Rodin; Victoria Chang 2011/04/07
%%abcx-initial-encoding-date 2011/04/07/
%%humdrum-veritas 2756367729
%%humdrum-veritas-data 3333290293
%%linebreak <none>
%%barnumbers 0
L: 1/4
M: 3/1
Q: 1/2=120
%%staves [1 2 3 4]
V: 1 clef=treble
V: 2 clef=treble-8
V: 3 clef=treble-8
V: 4 clef=bass
K: C
[V:1] A8A4 | 
[V:2] z12 | 
[V:3] z12 | 
[V:4] A,6F,4D,2 | 
[V:1] A3GA2_B4AG | 
[V:2] z12 | 
[V:3] z12 | 
[V:4] D,3E,F,2G,2D,2G,2 | 
[V:1] A2_B3AA4G2 | 
[V:2] z12 | 
[V:3] z12 | 
[V:4] F,3G,A,2C2_B,4 | 
[V:1] A3GE2F2E2C2- | 
[V:2] z12 | 
[V:3] z12 | 
[V:4] A,8A,4 | 
[V:1] C2F2E2D2F3E | 
[V:2] z12 | 
[V:3] z12 | 
[V:4] A,3G,A,2_B,4A,G, | 
[V:1] C2D3CA,2_B,4 | 
[V:2] z12 | 
[V:3] z12 | 
[V:4] A,2_B,3A,A,4G,2 | 
[V:1] A,4z2A,2C3B,/A,/ | 
[V:2] e8e4 | 
[V:3] z12 | 
[V:4] A,12 | 
[V:1] CDEFG2A2D2A2 | 
[V:2] e3de2f4ed | 
[V:3] z12 | 
[V:4] z12 | 
[V:1] G2A3GE2F4 | 
[V:2] e2f3ee4d2 | 
[V:3] z12 | 
[V:4] z12 | 
[V:1] E3D/C/C4z2C2 | 
[V:2] e12 | 
[V:3] A8A4 | 
[V:4] A,,6B,,2C,4 | 
[V:1] F6D2G4 | 
[V:2] z12 | 
[V:3] A3GA2_B4AG | 
[V:4] D,3E,F,2G,4F,E, | 
[V:1] z2G2E2C2D4 | 
[V:2] z12 | 
[V:3] A2_B3AA4G2 | 
[V:4] F,2G,2A,2A,,2_B,,4 | 
[V:1] C2c3BAGFGAF | 
[V:2] c8d4 | 
[V:3] A12 | 
[V:4] A,,8D,4 | 
[V:1] G4C2c2B2c2- | 
[V:2] e6e2e4 | 
[V:3] z12 | 
[V:4] C,3B,,/A,,/A,,2A,2G,2A,2- | 
[V:1] cBAGF2A2G4 | 
[V:2] c4d4e4 | 
[V:3] z12 | 
[V:4] A,G,F,E,D,2F,2E,4 | 
[V:1] z2A3FA2GFED | 
[V:2] f3ed2c2B4 | 
[V:3] F8G4 | 
[V:4] D,4z4E,4 | 
[V:1] C12 | 
[V:2] A8c4 | 
[V:3] A6A2A4 | 
[V:4] F,6F,2F,4 | 
[V:1] z12 | 
[V:2] d2f2e2d4c2 | 
[V:3] F4G4A4 | 
[V:4] D,4C,2B,,2A,,4 | 
[V:1] z12 | 
[V:2] d2f2e2d4^c2 | 
[V:3] _B3AG2F2E4 | 
[V:4] G,,2D,2E,2F,2G,4 | 
[V:1] D4F3GA4 | 
[V:2] d12- | 
[V:3] D8F4 | 
[V:4] G,,4D,8 | 
[V:1] z2d3cB2A4 | 
[V:2] d12- | 
[V:3] G2_B2A2G4F2 | 
[V:4] G,,2G,2F,2G,2D,4 | 
[V:1] G2D3CB,2A,4 | 
[V:2] d12- | 
[V:3] G2_B2A2G4^F2 | 
[V:4] G,,2G,2F,2G,2D,4 | 
[V:1] G,12 | 
[V:2] d12- | 
[V:3] G12- | 
[V:4] G,,12- | 
[V:1] G12 ||  
[V:2] d12 ||  
[V:3] G12 ||  
[V:4] G,,12 ||  
[V:1]  [K:C] [K:clef=treble][M:2/1]A4A4- | 
[V:2]  [K:C] [K:clef=treble-8][M:2/1]z8 | 
[V:3]  [K:C] [K:clef=treble-8][M:2/1]z8 | 
[V:4]  [K:C] [K:clef=bass][M:2/1]z8 | 
[V:1] A2GFA2G2- | 
[V:2] z8 | 
[V:3] z8 | 
[V:4] z8 | 
[V:1] GFEDC4 | 
[V:2] z8 | 
[V:3] e4e4- | 
[V:4] z8 | 
[V:1] z2G4F2 | 
[V:2] z8 | 
[V:3] e2dce2d2- | 
[V:4] z8 | 
[V:1] A2G4FE | 
[V:2] z8 | 
[V:3] dcBAG4 | 
[V:4] z8 | 
[V:1] D4A4 | 
[V:2] z8 | 
[V:3] z2d4c2 | 
[V:4] z8 | 
[V:1] G2F4ED | 
[V:2] z8 | 
[V:3] e2d4cB | 
[V:4] z8 | 
[V:1] C8 | 
[V:2] z8 | 
[V:3] A4e4 | 
[V:4] z8 | 
[V:1] z4G4- | 
[V:2] z8 | 
[V:3] d2c4BA | 
[V:4] z8 | 
[V:1] G2FED2G2 | 
[V:2] z8 | 
[V:3] G8 | 
[V:4] z8 | 
[V:1] F2D2F2G2 | 
[V:2] z8 | 
[V:3] z4d4- | 
[V:4] z8 | 
[V:1] A6F2 | 
[V:2] z8 | 
[V:3] d2cBA2d2 | 
[V:4] z8 | 
[V:1] G2A4F2 | 
[V:2] z8 | 
[V:3] c2A2c2d2 | 
[V:4] z8 | 
[V:1] G2E2G2A2 | 
[V:2] z8 | 
[V:3] e6c2 | 
[V:4] z8 | 
[V:1] F2G2E4 | 
[V:2] z8 | 
[V:3] d2e4c2 | 
[V:4] z8 | 
[V:1] z2G2F2G2- | 
[V:2] z8 | 
[V:3] d2B2d2e2 | 
[V:4] z8 | 
[V:1] GEF2G2D2- | 
[V:2] z8 | 
[V:3] c2d2B4 | 
[V:4] z8 | 
[V:1] DEFGA4 | 
[V:2] z8 | 
[V:3] z2d2c2d2- | 
[V:4] z8 | 
[V:1] z2A2F2A2 | 
[V:2] z8 | 
[V:3] dBc2d2A2- | 
[V:4] z8 | 
[V:1] G2E4G2 | 
[V:2] z8 | 
[V:3] ABcde4 | 
[V:4] z8 | 
[V:1] F2G2E2G2 | 
[V:2] z8 | 
[V:3] z2e2c2e2 | 
[V:4] z8 | 
[V:1] F2G2D4 | 
[V:2] z8 | 
[V:3] d2B4d2 | 
[V:4] z8 | 
[V:1] A4G2F2 | 
[V:2] z8 | 
[V:3] c2d2B2d2 | 
[V:4] z8 | 
[V:1] E2D2A4 | 
[V:2] z8 | 
[V:3] c2d2A4 | 
[V:4] z8 | 
[V:1] G6A2 | 
[V:2] z8 | 
[V:3] e4d2c2 | 
[V:4] z8 | 
[V:1] G2A3GE2 | 
[V:2] z8 | 
[V:3] B2A2e4 | 
[V:4] z8 | 
[V:1] F4G4 | 
[V:2] z8 | 
[V:3] d6e2 | 
[V:4] z8 | 
[V:1] F2G3FD2 | 
[V:2] z8 | 
[V:3] d2e3dB2 | 
[V:4] z8 | 
[V:1] E4DEFG | 
[V:2] z8 | 
[V:3] c4d4 | 
[V:4] z8 | 
[V:1] A2B3AA2- | 
[V:2] z8 | 
[V:3] c2d3cA2 | 
[V:4] z8 | 
[V:1] A2^G2A4 ||  
[V:2] z8 ||  
[V:3] B4A4 ||  
[V:4] z8 ||  
[V:1]  [K:C] [K:clef=treble][M:3/1]A6G2F4 | 
[V:2]  [K:C] [K:clef=treble-8][M:3/1]A4c4d4 | 
[V:3]  [K:C] [K:clef=treble-8][M:3/1]z12 | 
[V:4]  [K:C] [K:clef=bass][M:3/1]z12 | 
[V:1] E4F8 | 
[V:2] e6c2d4 | 
[V:3] z12 | 
[V:4] z12 | 
[V:1] E4A6F2 | 
[V:2] e4c4d4 | 
[V:3] z12 | 
[V:4] A,6G,2F,4 | 
[V:1] G4A8 | 
[V:2] e4c4d4 | 
[V:3] z12 | 
[V:4] E,4F,8 | 
[V:1] G8A4 | 
[V:2] e4B4e4 | 
[V:3] e6d2c4 | 
[V:4] E,8z4 | 
[V:1] B4G4A4 | 
[V:2] d4e4c4 | 
[V:3] B4c8 | 
[V:4] z12 | 
[V:1] B4G8 | 
[V:2] d4B4c4 | 
[V:3] B8z4 | 
[V:4] G,6F,2E,4 | 
[V:1] F4G4E4 | 
[V:2] d6B2c4 | 
[V:3] z12 | 
[V:4] D,4E,8 | 
[V:1] F8G4 | 
[V:2] d4A4d4 | 
[V:3] d6c2B4 | 
[V:4] D,8z4 | 
[V:1] A6F2G4 | 
[V:2] c4d4B4 | 
[V:3] A4B8 | 
[V:4] z12 | 
[V:1] A6G2F4 | 
[V:2] c4A4B4 | 
[V:3] A8z4 | 
[V:4] F,6E,2D,4 | 
[V:1] E4F4D4 | 
[V:2] c6A2B4 | 
[V:3] z12 | 
[V:4] C,4D,8 | 
[V:1] E8F4 | 
[V:2] c4e4d4 | 
[V:3] c6B2A4 | 
[V:4] C,8D,4 | 
[V:1] G6E2F4 | 
[V:2] B4e4d4 | 
[V:3] G4A8 | 
[V:4] E,4C,4D,4 | 
[V:1] G8F4 | 
[V:2] B4c4d4 | 
[V:3] G8A4 | 
[V:4] E,8D,4 | 
[V:1] D4E8 | 
[V:2] G4B4c4 | 
[V:3] B4G4A4 | 
[V:4] z12 | 
[V:1] D4B4c4 | 
[V:2] d4g4f4 | 
[V:3] B8A4 | 
[V:4] G,8A,4 | 
[V:1] d6B2c4 | 
[V:2] d4e8 | 
[V:3] z12 | 
[V:4] _B,4G,4A,4 | 
[V:1] d8c4 | 
[V:2] d4G4c4 | 
[V:3] d8e4 | 
[V:4] _B,8A,4 | 
[V:1] A4B8 | 
[V:2] d4B8 | 
[V:3] f4d4e4 | 
[V:4] F,4G,8 | 
[V:1] A8B4 | 
[V:2] c4d4B4 | 
[V:3] f8e4 | 
[V:4] F,8G,4 | 
[V:1] c6A2B4 | 
[V:2] A4a4g4 | 
[V:3] c4d8 | 
[V:4] A,4F,4G,4 | 
[V:1] c4e4d4 | 
[V:2] e8f4 | 
[V:3] c8d4 | 
[V:4] A,8z4 | 
[V:1] B4c4A4 | 
[V:2] g4e4f4 | 
[V:3] e4c4d4 | 
[V:4] z12 | 
[V:1] G4c8 | 
[V:2] g4e4f4 | 
[V:3] e8z4 | 
[V:4] C6B,2A,4 | 
[V:1] B4c4A4 | 
[V:2] g4c4d4 | 
[V:3] z12 | 
[V:4] G,4A,4F,4 | 
[V:1] G4B4c4 | 
[V:2] e6d2c4 | 
[V:3] g6f2e4 | 
[V:4] E,8z4 | 
[V:1] d4G4A4 | 
[V:2] B6c2A4 | 
[V:3] d4e4c4 | 
[V:4] G,4E,4F,4 | 
[V:1] B4G4A4 | 
[V:2] d4e4c4 | 
[V:3] B8z4 | 
[V:4] G,4E,4F,4 | 
[V:1] B4G8 | 
[V:2] B8G4 | 
[V:3] d4B4c4 | 
[V:4] G,6F,2E,4 | 
[V:1] F4D4E4 | 
[V:2] A4B4A4 | 
[V:3] d4B4c4 | 
[V:4] D,8z4 | 
[V:1] D4A4B4 | 
[V:2] B4A4d4 | 
[V:3] d6c2B4 | 
[V:4] D,4F,4G,4 | 
[V:1] c4A4B4 | 
[V:2] c4f4d4 | 
[V:3] A8z4 | 
[V:4] A,4F,4G,4 | 
[V:1] c6B2A4 | 
[V:2] c4A6B2 | 
[V:3] A4c4d4 | 
[V:4] A,6G,2F,4 | 
[V:1] G4A8 | 
[V:2] c4A8 | 
[V:3] e4c4d4 | 
[V:4] E,4F,8 | 
[V:1] G4c4A4 | 
[V:2] B4c8 | 
[V:3] e6d2c4 | 
[V:4] E,4A,6G,2 | 
[V:1] B4G4A4 | 
[V:2] d4e4A4 | 
[V:3] B4c8 | 
[V:4] G,4E,4F,4 | 
[V:1] B4G4A4 | 
[V:2] G4B6A2 | 
[V:3] B4e6d2 | 
[V:4] G,8F,4 | 
[V:1] F4G8 | 
[V:2] A8G4 | 
[V:3] d4B4c4 | 
[V:4] D,4E,8 | 
[V:1] F4_B4A4 | 
[V:2] A4G4c4 | 
[V:3] d8c4 | 
[V:4] D,4G,4A,4 | 
[V:1] A8^G4 | 
[V:2] d4e8 | 
[V:3] A4B8 | 
[V:4] F,4E,8 | 
[V:1] A12 ||  
[V:2] c12 ||  
[V:3] A12 ||  
[V:4] A,12 ||  
[V:1]  [K:C] [K:clef=treble][M:2/1]A6G2 | 
[V:2]  [K:C] [K:clef=treble-8][M:2/1]d8- | 
[V:3]  [K:C] [K:clef=treble-8][M:2/1]z8 | 
[V:4]  [K:C] [K:clef=bass][M:2/1]z8 | 
[V:1] F4E2A2- | 
[V:2] d4c4 | 
[V:3] z8 | 
[V:4] z8 | 
[V:1] A2^G^FG4 | 
[V:2] B8 | 
[V:3] z8 | 
[V:4] z8 | 
[V:1] A2c2B2A2- | 
[V:2] A4d4- | 
[V:3] z8 | 
[V:4] z8 | 
[V:1] AGF2E2G2- | 
[V:2] d4c2B2 | 
[V:3] z8 | 
[V:4] z8 | 
[V:1] GFEDE4 | 
[V:2] c8 | 
[V:3] z8 | 
[V:4] z8 | 
[V:1] D2A3Bc2- | 
[V:2] d4f4 | 
[V:3] z8 | 
[V:4] z8 | 
[V:1] cBAGF2_B2- | 
[V:2] e4d4- | 
[V:3] z8 | 
[V:4] z8 | 
[V:1] BAA4G2 | 
[V:2] d2c2_B4 | 
[V:3] z8 | 
[V:4] z8 | 
[V:1] A8 ||  
[V:2] A8 ||  
[V:3] z8 ||  
[V:4] z8 ||  
[V:1]  [K:C] [K:clef=treble][M:2/1]z8 | 
[V:2]  [K:C] [K:clef=treble-8][M:2/1]A8 | 
[V:3]  [K:C] [K:clef=treble-8][M:2/1]A8- | 
[V:4]  [K:C] [K:clef=bass][M:2/1]z8 | 
[V:1] z8 | 
[V:2] c4B4 | 
[V:3] A4G4 | 
[V:4] z8 | 
[V:1] z8 | 
[V:2] A2c4BA | 
[V:3] F8 | 
[V:4] z8 | 
[V:1] z8 | 
[V:2] G2c3de2- | 
[V:3] E4A4- | 
[V:4] z8 | 
[V:1] z8 | 
[V:2] e2dcB2d2- | 
[V:3] A4G2F2 | 
[V:4] z8 | 
[V:1] z8 | 
[V:2] dcBAB4 | 
[V:3] G8 | 
[V:4] z8 | 
[V:1] z8 | 
[V:2] A2D2E2F2 | 
[V:3] A4c4 | 
[V:4] z8 | 
[V:1] z8 | 
[V:2] (3G2D2E2FGAB | 
[V:3] B4A4- | 
[V:4] z8 | 
[V:1] z8 | 
[V:2] cBe4d2 | 
[V:3] A2G2F4 | 
[V:4] z8 | 
[V:1] z8 ||  
[V:2] e8 ||  
[V:3] E8 ||  
[V:4] z8 ||  
[V:1]  [K:C] [K:clef=treble][M:4/2]z8 | 
[V:2]  [K:C] [K:clef=treble-8][M:4/2]z8 | 
[V:3]  [K:C] [K:clef=treble-8][M:4/2]d8- | 
[V:4]  [K:C] [K:clef=bass][M:4/2]D,4F,4 | 
[V:1] z8 | 
[V:2] z8 | 
[V:3] d4c4 | 
[V:4] G,4A,2F,2 | 
[V:1] z8 | 
[V:2] z8 | 
[V:3] B8 | 
[V:4] G,F,E,D,E,D,D2- | 
[V:1] z8 | 
[V:2] z8 | 
[V:3] A4d4- | 
[V:4] D2^C2D2D,2- | 
[V:1] z8 | 
[V:2] z8 | 
[V:3] d4c2B2 | 
[V:4] D,E,F,G,A,2G,2 | 
[V:1] z8 | 
[V:2] z8 | 
[V:3] c8 | 
[V:4] E,2F,2E,2F,2- | 
[V:1] z8 | 
[V:2] z8 | 
[V:3] d4f4 | 
[V:4] F,E,D,C,D,4 | 
[V:1] z8 | 
[V:2] z8 | 
[V:3] e4d4- | 
[V:4] C,D,E,F,G,F,G,A, | 
[V:1] z8 | 
[V:2] z8 | 
[V:3] d2c2B4 | 
[V:4] B,A,A,4^G,2 | 
[V:1] z8 ||  
[V:2] z8 ||  
[V:3] A8 ||  
[V:4] A,8 ||  



